X: 66
T: Mai ronghua
L: 1/16
M: 2/4
K: C
B,2 A, G, E, E, E, G, [I:setbarnb 1]| 
A,2> B,2A,4 | 
E2 E2 D2 D E | 
C2 B, A,G,4 | 
D2 E2 E D C2 | 
E G D C B, A, G,2 | 
E2 D A, B,2 D A, | 
G,4G,4 | 
B,2 D E G,2 G,2 | 
C2 C2 E2 D E | 
A,2 A, G, E,2 D, E, | 
G,2> B,2 A, B, A,2 | 
D2 E G E D C2 | 
E2 D C B, A, G,2 | 
E2 D A, B,2 D A, | 
G,4G,4 |]

@@@ Tune index: 8940
